X:1
T: General Campbell of Monzies's Strathspey
C:
R:Strathspey
Q: 128
K:A
M:4/4
L:1/16
|:E2|A4 cA3 F3A EC3|E3e dcBA cB3 B3c|df3 ce3 B3A GE3|Fd3 BG3 A3B A2E2|
A4 cA3 F3A EC3|E3e dcBA cB3 B3c|df3 ce3 B3A GE3|Fd3 BG3 A3B A2e2|
ae3 cA3 BA3 GE3|Aa3 ec3 ABcd ec3|db3 ca3 B3A GE3|Fd3 c3B c2A2 A2e2|
ae3 cA3 BA3 GE3|ABcd e2c2 Aa3 ec3|db3 ca3 B3c df3|ea3 bg3 a4 a2:|
